X: 4007
T: Rabbie's Reel
P: The Harbour
C:Bert Murray
R:Reel (4x32)
B:RSCDS 40-7
Z:Anselm Lingnau <anselm@strathspey.org>
M:2/4
L:1/16
K:D
|:A2|"D"d2d2 fedc|d2d2 "A7"A2Bc|"D"dcde "Bm7"fagf|"Em"f2e2 "A7"egfe|
     "D"d2d2 "A7/C#"fedc|"G/B"dcdB "D/A"A2dc|\
                           "G"BGBd "A7"ceag|"D"f2"G"[d2B2G2]"D"[d2A2F2]:|
|:fg|"D"a2af "D/F#"d2af|"Em/G"b2bg "A"e2fg|"D"abaf "Bm7"dfaf|"Em"g2e2 "A7"e2fg|
     "D/F#"agfe "D/A"dcBA|"G"B2dB "D/F#"A2dc|\
                           "Em"BGBd "A7"ceag|"D"f2"G"[d2B2G2]"D"[d2A2F2]:|
%%center Book40/4007-Rabbies_Reel-AL.abc

%%sep 2 1 500
%%sep 1 1 500

